sourses/img/qiwi.svg

<svg width="48" height="48" viewBox="0 0 48 48" fill="none" xmlns="http://www.w3.org/2000/svg">
<g clip-path="url(#clip0)">
<path d="M41.6842 9.47363H6.3158C3.1765 9.47363 0.631592 12.0185 0.631592 15.1578V32.8421C0.631592 35.9814 3.1765 38.5263 6.3158 38.5263H41.6842C44.8235 38.5263 47.3684 35.9814 47.3684 32.8421V15.1578C47.3684 12.0185 44.8235 9.47363 41.6842 9.47363Z" fill="white"/>
<path d="M41.6842 10.1054C43.0243 10.1054 44.3094 10.6378 45.257 11.5853C46.2045 12.5329 46.7368 13.818 46.7368 15.1581V32.8423C46.7368 34.1823 46.2045 35.4675 45.257 36.415C44.3094 37.3626 43.0243 37.8949 41.6842 37.8949H6.31579C4.97575 37.8949 3.69059 37.3626 2.74304 36.415C1.79549 35.4675 1.26316 34.1823 1.26316 32.8423V15.1581C1.26316 13.818 1.79549 12.5329 2.74304 11.5853C3.69059 10.6378 4.97575 10.1054 6.31579 10.1054H41.6842ZM41.6842 8.84229H6.31579C4.64074 8.84229 3.03429 9.5077 1.84985 10.6921C0.665412 11.8766 0 13.483 0 15.1581L0 32.8423C0 34.5173 0.665412 36.1238 1.84985 37.3082C3.03429 38.4927 4.64074 39.1581 6.31579 39.1581H41.6842C43.3593 39.1581 44.9657 38.4927 46.1501 37.3082C47.3346 36.1238 48 34.5173 48 32.8423V15.1581C48 13.483 47.3346 11.8766 46.1501 10.6921C44.9657 9.5077 43.3593 8.84229 41.6842 8.84229Z" fill="#F7F7F7"/>
<g clip-path="url(#clip1)">
<path d="M29.9497 27.1098C30.0008 27.4587 29.8929 27.6064 29.7839 27.6064C29.6749 27.6064 29.517 27.4645 29.341 27.183C29.165 26.9016 29.1048 26.5887 29.19 26.4283C29.2221 26.3727 29.2738 26.3318 29.3345 26.3143C29.3952 26.2968 29.4602 26.3038 29.5159 26.334C29.8055 26.4457 29.9201 26.9004 29.9497 27.1098ZM28.3452 27.875C28.6938 28.1763 28.7994 28.5345 28.6154 28.7868C28.5594 28.8574 28.488 28.9135 28.4069 28.9507C28.3259 28.9879 28.2374 29.005 28.1487 29.0008C27.9542 29.0012 27.7658 28.9316 27.6162 28.8043C27.3005 28.5217 27.2074 28.0623 27.414 27.8018C27.4597 27.7483 27.5167 27.7063 27.5806 27.6788C27.6446 27.6514 27.7139 27.6394 27.7831 27.6436C27.9912 27.6507 28.1902 27.7326 28.3452 27.875ZM27.7638 30.7826C29.2615 30.7826 30.8865 31.3083 32.6863 32.9411C32.8657 33.104 33.1053 32.9016 32.9486 32.6981C31.1806 30.4127 29.542 29.9766 27.9148 29.6091C25.9208 29.159 24.8943 28.0088 24.18 26.7469C24.0381 26.4957 23.9734 26.5399 23.9609 26.8632C23.9463 27.3422 23.9791 27.8215 24.0585 28.2937C23.9779 28.2937 23.8973 28.2937 23.8155 28.2937C22.7937 28.2937 21.7948 27.9834 20.9451 27.4019C20.0955 26.8205 19.4332 25.994 19.0422 25.0271C18.6511 24.0601 18.5488 22.9961 18.7482 21.9696C18.9475 20.9431 19.4396 20.0003 20.1622 19.2602C20.8847 18.5201 21.8053 18.0161 22.8076 17.812C23.8098 17.6078 24.8487 17.7126 25.7927 18.1131C26.7368 18.5136 27.5437 19.1919 28.1115 20.0621C28.6792 20.9323 28.9822 21.9554 28.9822 23.002C28.9827 23.2076 28.9717 23.413 28.9493 23.6172C28.405 23.547 27.8549 23.5365 27.3084 23.5858C27.112 23.6033 27.1404 23.7021 27.288 23.7242C28.9913 24.0394 30.17 25.1199 30.4379 27.0912C30.4389 27.1012 30.4429 27.1106 30.4494 27.1181C30.4559 27.1256 30.4646 27.1308 30.4741 27.133C30.4837 27.1352 30.4937 27.1343 30.5027 27.1303C30.5117 27.1263 30.5192 27.1196 30.5242 27.1109C31.4103 25.5939 31.7812 23.8192 31.5792 22.0636C31.3771 20.3081 30.6135 18.6703 29.4073 17.4059C28.2012 16.1414 26.6204 15.3214 24.9115 15.0737C23.2025 14.8259 21.4616 15.1644 19.9602 16.0363C18.4588 16.9083 17.2814 18.2646 16.6116 19.8938C15.9418 21.523 15.8173 23.3334 16.2575 25.0427C16.6976 26.752 17.6778 28.264 19.045 29.3429C20.4122 30.4218 22.0896 31.007 23.8155 31.007C24.9602 31.0094 26.0968 30.7814 27.7695 30.7814L27.7638 30.7826Z" fill="#FF8C00"/>
</g>
</g>
<defs>
<clipPath id="clip0">
<rect width="48" height="48" fill="white"/>
</clipPath>
<clipPath id="clip1">
<rect x="16" y="15" width="17" height="18" fill="white"/>
</clipPath>
</defs>
</svg>

<svg width="48" height="48" fill="none" xmlns="http://www.w3.org/2000/svg"><g clip-path="url(#clip0)"><path d="M41.684 9.474H6.316a5.684 5.684 0 00-5.684 5.684v17.684a5.684 5.684 0 005.684 5.684h35.368a5.684 5.684 0 005.684-5.684V15.158a5.684 5.684 0 00-5.684-5.684z" fill="#fff"/><path d="M41.684 10.105a5.053 5.053 0 015.053 5.053v17.684a5.053 5.053 0 01-5.053 5.053H6.316a5.052 5.052 0 01-5.053-5.053V15.158a5.053 5.053 0 015.053-5.053h35.368zm0-1.263H6.316A6.316 6.316 0 000 15.158v17.684a6.316 6.316 0 006.316 6.316h35.368A6.315 6.315 0 0048 32.842V15.158a6.316 6.316 0 00-6.316-6.316z" fill="#F7F7F7"/><g clip-path="url(#clip1)"><path d="M29.95 27.11c.05.349-.057.496-.166.496-.11 0-.267-.142-.443-.423s-.236-.594-.151-.755a.24.24 0 01.326-.094c.29.112.404.566.434.776zm-1.605.765c.349.301.454.66.27.912a.57.57 0 01-.466.214.819.819 0 01-.533-.197c-.316-.282-.409-.742-.202-1.002a.457.457 0 01.37-.158.875.875 0 01.561.231zm-.581 2.908c1.498 0 3.123.525 4.922 2.158.18.163.42-.04.263-.243-1.768-2.285-3.407-2.721-5.034-3.089-1.994-.45-3.02-1.6-3.735-2.862-.142-.251-.207-.207-.22.116-.014.48.02.959.098 1.43h-.242a5.08 5.08 0 01-2.87-.891 5.266 5.266 0 01-1.904-2.375 5.41 5.41 0 01-.294-3.057c.2-1.027.692-1.97 1.414-2.71a5.129 5.129 0 012.646-1.448 5.053 5.053 0 012.985.301 5.196 5.196 0 012.319 1.95c.567.87.87 1.892.87 2.939 0 .206-.01.411-.033.615a7.534 7.534 0 00-1.64-.031c-.197.017-.169.116-.021.138 1.703.315 2.882 1.396 3.15 3.367 0 .01.005.02.011.027a.047.047 0 00.025.015.045.045 0 00.05-.022 8.165 8.165 0 001.055-5.047 8.087 8.087 0 00-2.172-4.658 7.752 7.752 0 00-4.495-2.332 7.66 7.66 0 00-4.952.962 7.946 7.946 0 00-3.348 3.858 8.187 8.187 0 00-.354 5.149 8.02 8.02 0 002.787 4.3 7.698 7.698 0 004.77 1.664c1.145.002 2.282-.226 3.954-.226l-.005.002z" fill="#FF8C00"/></g></g><defs><clipPath id="clip0"><path fill="#fff" d="M0 0h48v48H0z"/></clipPath><clipPath id="clip1"><path fill="#fff" d="M16 15h17v18H16z"/></clipPath></defs></svg>
